X:0823
T:Rakes of Westmouth,
C:Irish.
M:9/8
L:1/8
Q:3/8=112
I: :: :|
Z:Jack Campin * www.campin.me.uk * 2009
K:D
d3  dAG FED|d3  dAG G2E|ABc dAG FGA|=cBc E2F G2E:|
d2g fdf ece|d2g fdf g2e|d2g fdf ece|=cBc E2F G2E:|
<end>
<start>
